!!!COM: Power, Leonel
!!!OTL: Mater ora filium
!!!ONM: No. 23
!!!YOR: from: "Complete Works" edited by Charles Hamm, Vol. 1, Motets, pp.??
!!!YOO: American Institute of Musicology
!!!YOY: 1969
**kern	**kern	**kern
*ICvox	*ICvox	*ICvox
! tenor	! contratenor	! discantus
*M3/4	*M3/4	*M3/4
=1	=1	=1
*>A	*>A	*>A
!! Section 'A'; (O) mensuration.
[2.f	2.r	2.f
=2	=2	=2
2.f]	2F	4.a
.	.	8b
.	4f	8cc
.	.	8dd
=3	=3	=3
2c	2e	8cc
.	.	8b
.	.	4g
8e	8c	8cc
8d	8B	[8dd
=4	=4	=4
8f	8B	8dd]
8e	4c	4cc
4c	.	.
.	8e	8a
4d	8f	4b
.	8d	.
=5	=5	=5
2c	2e	4cc
.	.	8a
.	.	8cc
4e	8r	8b-x
.	8c	8g
=6	=6	=6
2f	8d	4f
.	8c	.
.	2A	8r
.	.	4cc
4r	.	.
.	.	8a
=7	=7	=7
4g	4G	8b
.	.	8.dd
8f	4r	.
.	.	16cc
8e	.	4cc
8c	8e	.
8d	8f	8b
=8	=8	=8
2c	8g	8cc
.	4e	8a
.	.	8g
.	8c	4a
4d	4f	.
.	.	8f
=9	=9	=9
4c	8r	8e
.	8c	4g
2B	8d	.
.	4B	8f
.	.	4d
.	8G	.
=10	=10	=10
4A	4A	8c
.	.	8f
2G	2B	8g
.	.	4e
.	.	8d
=11	=11	=11
[2.F	2.c	2.f
=12	=12	=12
2.F]	2r	2r
.	4f	8a
.	.	8b
!! contratenor discantus
=13	=13	=13
*>B	*>B	*>B
!! Section 'B'; (O) mensuration.
2.r	8e	8cc
.	8d	4dd
.	8f	.
.	8e	8cc
.	4g	8b
.	.	8g
=14	=14	=14
2.r	4f	4a
.	8e	4g
.	4c	.
.	.	8a
.	8e	[8cc
=15	=15	=15
2.r	4f	8cc]
.	.	4dd
.	8B	.
.	8c	4cc
.	4d	.
.	.	8b-x
=16	=16	=16
2.r	8r	4a
.	4c	.
.	.	8r
.	4f	8f
.	.	4g
.	8e	.
=17	=17	=17
2.r	8.d	8f
.	.	8d
.	16c	.
.	8d	8f
.	4c	8e
.	.	8c
.	8Bnx	8d
=18	=18	=18
2.r	4c	8e
.	.	8c
.	8A	8f
.	4B-	8g
.	.	4b-
.	8G	.
=19	=19	=19
2.r	8F	8a
.	8E	8.g
.	4F	.
.	.	16f
.	.	4f
.	4G	.
.	.	8e
=20	=20	=20
2.r	4F	8f
.	.	8.a
.	8c	.
.	.	16g
.	8e	8cc
.	4d	8b
.	.	16a
.	.	16b
=21	=21	=21
2.r	2.c	2cc
.	.	4a
=22	=22	=22
*>C	*>C	*>C
!! Section 'C'; (O) mensuration.
[2.F	4f	2.r
.	8e	.
.	4d	.
.	8c	.
=23	=23	=23
2.F]	2.c	2.a
=24	=24	=24
2.e	2.r	2.g
!! jump of seventh correct
=25	=25	=25
2.f	[2.F	8a
.	.	8cc
.	.	8b
.	.	4a
.	.	8dd
=26	=26	=26
2.c	4F]	8cc
.	.	8a
.	2e	8g
.	.	4a
.	.	[8cc
!! seventh jump correct
=27	=27	=27
2.d	2f	8cc]
.	.	8b
.	.	4a
.	4d	8r
.	.	8f
=28	=28	=28
2.e	4c	4g
.	4r	4c
.	4A	8r
.	.	[8cc
=29	=29	=29
8r	2F	8cc]
8.f	.	8a
.	.	4a
16e	.	.
8f	.	.
8e	4c	8g
[8c	.	8a
=30	=30	=30
8c]	2.r	8e
8.d	.	8d
16c	.	4f
8d	.	.
8c	.	8e
[8A	.	8f
=31	=31	=31
8A]	2e	4a
8.c	.	.
16B-	.	8g
8c	.	8a
8A	4f	4cc
[8F	.	.
=32	=32	=32
8F]	4.c	8a
4c	.	8g
.	.	4e
8G	8B-	.
8A	8c	8f
8G	[8d	[8g
=33	=33	=33
4B-	8d]	8g]
.	8B-	8f
8c	8A	4a
4d	4f	.
.	.	8b
8c	8e	[8cc
=34	=34	=34
4A	4.e	8cc]
.	.	4a
8c	.	.
8d	4.d	4f
4B-	.	.
.	.	8g
=35	=35	=35
2.A	4e	2a
.	4r	.
.	4e	4r
=36	=36	=36
*>D	*>D	*>D
!! Section 'D'; (O) mensuration.
2.r	8f	8a
.	8g	8g
.	8e	4.cc
.	4a	.
.	8g	[8b
=37	=37	=37
*M2/4	*M2/4	*M2/4
2r	8d	8b]
.	8g	8g
.	4f	4a
=38	=38	=38
*M3/4	*M3/4	*M3/4
2.r	8g	8g
.	4a	8.cc
.	.	16a
.	4g	8b
.	.	8g
.	8f	8a
=39	=39	=39
2.r	8g	8g
.	8e	8cc
.	8f	8dd
.	8e	4cc
.	4d	.
.	.	8b
=40	=40	=40
2.r	2c	4cc
.	.	4r
.	4r	4cc
=41	=41	=41
*M4/4	*M4/4	*M4/4
1r	2.G	4.dd
.	.	8b
.	.	8b
.	.	4g
.	8B-	.
.	[8d	8f
=42	=42	=42
*M3/4	*M3/4	*M3/4
2.r	4d]	8a
.	.	8.a
.	8e	.
.	.	16g
.	8c	16f
.	.	16e
.	4d	8d
.	.	8B
=43	=43	=43
2.r	8e	8c
.	8f	4d
.	4d	.
.	.	8f
.	8c	8e
.	8d	[8d
=44	=44	=44
2.r	8f	8d]
.	8e	8c
.	8d	8d
.	4g	8e
.	.	4c
.	8e	.
=45	=45	=45
2.r	4d	8d
.	.	8f
.	8c	8e
.	8B-	8g
.	4A	16f#x
.	.	16f#x
.	.	16g
.	.	16e
=46	=46	=46
2.r	[2.G	2g
.	.	4r
=47	=47	=47
*>E	*>E	*>E
!! Section 'E'; (O) mensuration.
2.d	2.G]	2r
.	.	4b-
=48	=48	=48
4c	2r	4a
4B-	.	4.g
[4A	4c	.
.	.	8f
=49	=49	=49
4A]	2c	8f
.	.	16e
.	.	16f
2G	.	8g
.	.	4e
.	4B-	.
.	.	8d
=50	=50	=50
2.F	2.c	4f
.	.	[2a
=51	=51	=51
2c	8F	2a]
.	4c	.
.	8A	.
4d	4G	4b
=52	=52	=52
4e	4r	4cc
4.f	4F	8a
.	.	[4.dd
.	[4B-	.
8d	.	.
=53	=53	=53
8f	8B-]	8dd]
8e	8c	4cc
8c	8e	.
8d	4d	8b-x
8B-	.	4g
[8c	8c	.
=54	=54	=54
8c]	8e	4a
4d	8f	.
.	8d	8b
8e	8c	8cc
4f	4F	8a
.	.	[8dd
=55	=55	=55
8e	4c	16dd]
.	.	16cc
8c	.	8cc
8B-	8d	8g
8c	8e	8cc
4d	4f	8.b
.	.	16a
=56	=56	=56
4c	4g	2cc
8r	8e	.
8A	8c	.
4G	8d	8r
.	8e	8b
=57	=57	=57
4F	2f	2a
8r	.	.
4A	.	.
.	8r	8f
8B-	8d	[8g
=58	=58	=58
4c	8c	8g]
.	8A	8e
8B-	2B-	4d
4d	.	.
.	.	8f
8B-	.	[8g
=59	=59	=59
4c	8r	8g]
.	4c	8e
8A	.	8f
4G	8B-	8e
.	4B-	4g
8E-	.	.
=60	=60	=60
4F	8r	8a
.	8A	8cc
8G	8G	8b
8B-	8d	8g
4A	4c	4f#
=61	=61	=61
[2.G	[2.d	[2.g
=62	=62	=62
2.G]	2.d]	2.g]
==	==	==
*-	*-	*-
!!!ENC: Mark Laxton
!!!EDD: Mark Laxton
!!!YEC: Mark Laxton, 1987
!!!EMD: Reference records added by D. Huron, 2001
!!!EEV: 1.1
